src/assets/images/oss/large/dgrid.svg

<svg width="262" height="123" viewBox="0 0 262 123" fill="none" xmlns="http://www.w3.org/2000/svg">
<path d="M112.643 0.00299072H261.035V16.6221H112.643V0.00299072Z" fill="#1F3D56"/>
<path d="M112.643 34.4306H261.035V51.0495H112.643V34.4306Z" fill="#1F3D56"/>
<path d="M112.643 68.8611H261.035V85.4802H112.643V68.8611Z" fill="#1F3D56"/>
<path d="M112.643 103.292H261.035V119.911H112.643V103.292Z" fill="#1F3D56"/>
<path fill-rule="evenodd" clip-rule="evenodd" d="M84.4063 0V38.4774V60.3603V87.7139C78.501 101.938 64.1069 110.691 49.7127 110.691C27.8447 110.691 12.9892 92.1816 12.9892 73.6724C12.9892 53.6131 29.4133 37.3832 49.7127 37.3832C59.2166 37.3832 67.3363 40.6657 73.5184 45.6805L75.7329 31.9125C68.259 27.536 59.4011 24.983 49.7127 24.983C29.4133 24.983 4.50034 37.1097 0.532722 66.6516C0.0713712 70.2987 -0.38998 70.937 0.532722 81.3314C0.624992 82.8814 1.36315 85.9815 2.10132 88.2609C9.94428 112.97 32.5505 123 49.7127 123C62.8151 123 75.2716 117.803 84.4063 109.141V120.356H100V0H84.4063Z" fill="#1F3D56"/>
</svg>

<svg width="262" height="123" fill="none" xmlns="http://www.w3.org/2000/svg"><path d="M112.643.003h148.392v16.62H112.643V.002zM112.643 34.43h148.392v16.62H112.643V34.43zM112.643 68.861h148.392v16.62H112.643V68.86zM112.643 103.292h148.392v16.619H112.643v-16.619z" fill="#1F3D56"/><path fill-rule="evenodd" clip-rule="evenodd" d="M84.406 0v87.714c-5.905 14.224-20.3 22.977-34.693 22.977-21.868 0-36.724-18.51-36.724-37.019 0-20.059 16.424-36.289 36.724-36.289 9.504 0 17.623 3.283 23.805 8.297l2.215-13.767c-7.474-4.377-16.332-6.93-26.02-6.93-20.3 0-45.213 12.127-49.18 41.669-.462 3.647-.923 4.285 0 14.68.092 1.55.83 4.65 1.568 6.929C9.944 112.97 32.551 123 49.713 123c13.102 0 25.559-5.197 34.693-13.859v11.215H100V0H84.406z" fill="#1F3D56"/></svg>
